src/assets/selectIcons/camuffamento.svg

<svg xmlns="http://www.w3.org/2000/svg" viewBox="0 0 512 512"><path d="M0 0h512v512H0z"/><path fill="#fff" d="M478.7 419c-17.8 11-79.9 43-135.9 2-66.8 55-136.4 18-154.1 7l100.2-46.7c14.9 10.5 52.1 29.7 95.2-.4zM161.9 164.8c14.4-12.3 33.4-19.7 54.1-19.7 36.8 0 67.9 23.4 78.6 55.7h33.8c10.6-32.3 41.8-55.7 78.6-55.7 45.6 0 82.4 36 82.4 80.1 0 44.2-36.8 80.2-82.4 80.2-2.4 0-4.8-.1-7.1-.3 6.7 18.7 11.4 39 12.1 60.2l-31.8-12.9-5.7 4.5c-40.9 32.6-75.3.7-75.3.7l-6.2-5.8-43.9 20.4c-2.9-28.9 6.1-56.6 16.3-82.8-13.8 10-30.8 16-49.4 16-45.6 0-82.4-36-82.4-80.2 0-4.2.3-8.3.9-12.3L47.02 282l5.66 48.7-20.7 2.4-7-60.2zM407 284.6c33.9 0 61.6-26.5 61.6-59.4 0-32.8-27.7-59.3-61.6-59.3-29.9 0-55 20.6-60.5 47.9 11.6 14 29.7 38.3 43.9 68.6 5.3 1.4 10.8 2.2 16.6 2.2zm-252.6-59.4c0 32.9 27.7 59.4 61.6 59.4 33.9 0 61.6-26.5 61.6-59.4 0-32.8-27.7-59.3-61.6-59.3-13.8 0-26.6 4.4-36.9 11.8l-4.2 3.3c-12.6 10.9-20.5 26.6-20.5 44.2zm326.8-122.5s-72.6-48.8-146.2-.1l23.1 34.8c50.2-33.3 99.8-.1 99.8-.1zm-315.6 34.6s49.6-33.2 99.9.1l23-34.8c-73.5-48.7-146.1.1-146.1.1z"/></svg>

<?xml version="1.0" encoding="UTF-8" standalone="no"?>
<!DOCTYPE svg PUBLIC "-//W3C//DTD SVG 1.1//EN" "http://www.w3.org/Graphics/SVG/1.1/DTD/svg11.dtd">
<svg width="100%" height="100%" viewBox="0 0 512 512" version="1.1" xmlns="http://www.w3.org/2000/svg" xmlns:xlink="http://www.w3.org/1999/xlink" xml:space="preserve" xmlns:serif="http://www.serif.com/" style="fill-rule:evenodd;clip-rule:evenodd;stroke-linejoin:round;stroke-miterlimit:2;">
    <rect x="0" y="0" width="512" height="512" style="fill-rule:nonzero;"/>
    <path d="M161.9,164.8C176.3,152.5 195.3,145.1 216,145.1C252.8,145.1 283.9,168.5 294.6,200.8L328.4,200.8C339,168.5 370.2,145.1 407,145.1C452.6,145.1 489.4,181.1 489.4,225.2C489.4,269.4 452.6,305.4 407,305.4C404.6,305.4 402.2,305.3 399.9,305.1C406.6,323.8 411.3,344.1 412,365.3L380.2,352.4L374.5,356.9C333.6,389.5 299.2,357.6 299.2,357.6L293,351.8L249.1,372.2C246.2,343.3 255.2,315.6 265.4,289.4C251.6,299.4 234.6,305.4 216,305.4C170.4,305.4 133.6,269.4 133.6,225.2C133.6,221 133.9,216.9 134.5,212.9L47.02,282L52.68,330.7L31.98,333.1L24.98,272.9L161.9,164.8ZM407,284.6C440.9,284.6 468.6,258.1 468.6,225.2C468.6,192.4 440.9,165.9 407,165.9C377.1,165.9 352,186.5 346.5,213.8C358.1,227.8 376.2,252.1 390.4,282.4C395.7,283.8 401.2,284.6 407,284.6ZM154.4,225.2C154.4,258.1 182.1,284.6 216,284.6C249.9,284.6 277.6,258.1 277.6,225.2C277.6,192.4 249.9,165.9 216,165.9C202.2,165.9 189.4,170.3 179.1,177.7L174.9,181C162.3,191.9 154.4,207.6 154.4,225.2Z" style="fill:rgb(255,179,0);fill-rule:nonzero;"/>
    <path d="M478.7,419C460.9,430 398.8,462 342.8,421C276,476 206.4,439 188.7,428L288.9,381.3C303.8,391.8 341,411 384.1,380.9L478.7,419ZM481.2,102.7L457.9,137.3C457.9,137.3 408.3,104.1 358.1,137.4L335,102.6C408.6,53.9 481.2,102.7 481.2,102.7ZM165.6,137.3L142.4,102.7C142.4,102.7 215,53.9 288.5,102.6L265.5,137.4C215.2,104.1 165.6,137.3 165.6,137.3Z" style="fill:rgb(122,75,75);"/>
</svg>
